images/Paramount_Logo.svg

<svg fill="none" height="648" viewBox="0 0 2487 648" width="2487" xmlns="http://www.w3.org/2000/svg"><g fill="#fff"><path d="m1828.9 318.031c46.07 4.2 83.03-58.415 83.03-58.415s-7.15 23.12-9.08 28.287c-13.23 35.616-76.2 48.395-76.2 48.395s-10.58 29.372-18.73 44.707c-37.45 70.289-113.19 123.709-162 107.718-48.86-15.992-62.59-88.168 9.11-176.627 52.61-64.886 113.65-74.104 141.46-61.151 40.56 18.928 33.09 58.115 32.41 67.086zm-160.65 155.163c38.52 19.333 139.31-193.743 105.89-209.006-46.06-21.031-140.17 191.784-105.89 209.006z"/><path d="m2479.68 165.171h-50.24l-40.1 90.314h-34.74l-3.65 7.791h34.24s-53.04 103.612-77.55 151.485c-18.31 35.613-11.02 94.924 35.99 95.889 83.56.398 118.69-79.415 120.98-83.071 2.28-3.667-5.94-6.85-7.8-1.397-23.23 43.367-67.97 72.567-90.78 71.209-6.36-.355-28.77-8.666-20.08-38.781 6.9-23.941 88.99-195.334 88.99-195.334h49.25l2.76-7.791h-47.93c0 .003 40.66-89.436 40.66-90.314zm-1514.628 93.997-105.416 219.957h60.204s34.596-81.502 54.79-116.827c17.208-30.113 40.15-50.2 40.15-50.2s2.7 36.815 22.84 35.136c52.04-4.292 75.72-36.491 75.72-36.491s-26.2 16.459-36.04 11.849c-10.87-5.041-6.82-25.09.9-36.956 7.76-11.867 14.43-19.14 15.08-26.465.92-10.029-9.59-10.454-13.2-10.937-10.55-1.357-57.68 39.851-73.93 54.308-2.82 2.482-5.96-.465-5.06-4.093.92-3.665 17.82-39.278 17.82-39.278zm-470.034-258.292681c164.761.554521 260.275 105.430681 259.223 183.470681 0 111.796-135.565 169.764-248.717 169.764-71.229 284.738-301.192 295.89-343.618 292.953-168.85168-13.646-160.66822-112.266-161.580805-122.294 7.325585-70.299 52.037505-65.726 60.238405-63.901 24.6797 6.418 26.4999 31.04 26.4999 42.906 0 11.852-22.6904 33.112-25.5873 49.28-9.1135 51.133 48.7128 80.868 106.7928 83.508 59.808 2.753 143.762-38.291 200.785-166.546 4.575-13.689 70.299-167.941 83.99-194.869 6.846-13.475 72.105-139.193 155.128-152.88-49.247 49.305-69.352 137.834-97.64 216.781 29.218 2.271 60.06-.766 107.683-43.406 27.985-25.073 52.289-64.458 58.914-126.378 1.792-16.866-5.856-147.4066-181.661-155.1425-237.745-10.49349-361.85 169.2245-361.887 287.9535 0 10.933 4.578 98.122 92.656 97.637 46.515 0 83.275-32.64 80.771-52.911-2.112-16.958-11.417-39.238 5.898-50.657 10.864-7.129 42.459-10.026 49.302 17.349 5.936 26.468-18.262 96.73-136.883 96.73-67.997 0-157.4732-51.088-153.8079-153.34 3.7175-103.792 146.1589-256.88297158 423.5009-256.007681z"/><path d="m819.483 426.199c-1.843 11.879-2.858 19.602 9.113 21.445 25.359 3.874 74.392-55.24 74.392-55.24s8.025 7.922 0 17.354c-20.084 23.749-74.213 65.726-101.305 73.484-12.366 3.521-32.455 2.967-36.043-19.607-2.377-14.832 1.785-31.948 1.785-31.948s-71.174 74.838-116.816 48.37c-4.536-2.748-44.837-29.931 19.174-120.474 61.633-87.171 135.098-102.255 160.636-104.491 26.052-2.339 60.347-2.998 61.151 12.297.93 17.354-70.265 146.942-72.087 158.81zm-89.457-70.284c-31.577 54.435-41.051 87.653-23.267 94.459 38.794 14.903 109.165-120.335 131.413-178.877-45.155-4.108-86.649 47.464-108.146 84.418zm480.454 71.07c-1.83 11.901-2.85 19.619 9.15 21.445 25.33 3.874 71.19-52.485 71.19-52.485s8.01 7.885 0 17.351c-20.1 23.715-71.03 62.994-98.12 70.712-12.37 3.561-32.47 3.002-36.05-19.584-2.37-14.816 1.83-31.953 1.83-31.953s-71.22 74.857-116.82 48.394c-4.58-2.75-44.837-29.969 19.14-120.477 61.63-87.188 135.08-102.22 160.67-104.525 26.01-2.302 60.34-2.964 61.15 12.329.87 17.352-70.3 146.924-72.14 158.793zm-89.44-70.267c-31.58 54.417-41.07 87.614-23.26 94.459 38.77 14.853 109.16-120.372 131.44-178.895-45.19-4.093-86.7 47.482-108.18 84.436z"/><path d="m1347 259.168-99.46 219.957h54.75l69.82-153.786s38.8-41.727 58.86-41.526c15.55.139 6.89 30.593-.93 41.526-7.75 10.934-73.48 153.786-73.48 153.786h55.22s63.94-130.941 69.39-142.852c5.5-11.846 44.55-57.697 66.17-57.448 16.3.146 3.22 31.005-3.18 42.854-6.39 11.901-39.24 79.858-54.34 109.973-18.23 45.64 11.7 53.948 20.1 54.326 43.82 1.822 97.21-57.936 97.21-57.936l1.36-19.662s-46.1 59.798-62.11 48.382c-6.08-4.381-7.22-8.225-4.97-16.874 1.21-4.503 59.15-125.554 67.51-141.921 9.15-17.817 13.8-43.889-14.58-43.802-49.25.07-94.91 39.264-94.91 39.264s3.21-38.351-22.84-38.351c-44.71 0-92.13 40.584-92.13 40.584l15.9-36.491z"/><path d="m1962.6 259.168s-75.3 156.06-78.91 173.877c-3.68 17.797 10.01 17.349 8.65 17.349 61.61 0 135.06-191.223 135.06-191.223h49.28s-70.91 164.064-72.98 169.778c-2.79 7.279-1.89 16.728 7.64 18.998 41.11-4.105 112.88-118.945 112.88-118.945s-25.66 53.54-28.35 59.798c-10.96 25.073-76.2 76.643-76.2 76.643s-49.14 41.425-67.08 6.396c-6.29-12.225-4.14-39.262-4.14-39.262s-63.41 54.86-97.14 53.861c-15.58-.463-27.45-9.579-26.95-31.503.46-23.817 87.6-195.767 87.6-195.767z"/><path d="m2200.35 259.168-19.59 44.727s.57 1.823 2.5.219c12.01-10.133 52.89-52.809 95.6-52.699 44.36.104 21.45 55.233 21.45 55.233l-60.22 126.397s-5.94 16.693 3.64 17.797c15.94 1.82 74.85-52.02 74.85-52.02l.42 10.951s-82.13 79.857-118.16 76.662c-36.09-3.213-18.72-45.194-18.72-45.194l67.04-144.192s6.01-14.601-8.18-14.601c-31.48 0-55.21 40.139-69.37 57.488-13.94 17.063-70.69 139.186-70.69 139.186l-50.72-.443 99.53-219.513z"/></g></svg>

<svg width="2487" height="648" viewBox="0 0 2487 648" fill="none" xmlns="http://www.w3.org/2000/svg">
<path d="M1828.9 318.031C1874.97 322.231 1911.93 259.616 1911.93 259.616C1911.93 259.616 1904.78 282.736 1902.85 287.903C1889.62 323.519 1826.65 336.298 1826.65 336.298C1826.65 336.298 1816.07 365.67 1807.92 381.005C1770.47 451.294 1694.73 504.714 1645.92 488.723C1597.06 472.731 1583.33 400.555 1655.03 312.096C1707.64 247.21 1768.68 237.992 1796.49 250.945C1837.05 269.873 1829.58 309.06 1828.9 318.031ZM1668.25 473.194C1706.77 492.527 1807.56 279.451 1774.14 264.188C1728.08 243.157 1633.97 455.972 1668.25 473.194Z" fill="white"/>
<path d="M2479.68 165.171H2429.44L2389.34 255.485H2354.6L2350.95 263.276H2385.19C2385.19 263.276 2332.15 366.888 2307.64 414.761C2289.33 450.374 2296.62 509.685 2343.63 510.65C2427.19 511.048 2462.32 431.235 2464.61 427.579C2466.89 423.912 2458.67 420.729 2456.81 426.182C2433.58 469.549 2388.84 498.749 2366.03 497.391C2359.67 497.036 2337.26 488.725 2345.95 458.61C2352.85 434.669 2434.94 263.276 2434.94 263.276H2484.19L2486.95 255.485H2439.02C2439.02 255.488 2479.68 166.049 2479.68 165.171ZM965.052 259.168L859.636 479.125H919.84C919.84 479.125 954.436 397.623 974.63 362.298C991.838 332.185 1014.78 312.098 1014.78 312.098C1014.78 312.098 1017.48 348.913 1037.62 347.234C1089.66 342.942 1113.34 310.743 1113.34 310.743C1113.34 310.743 1087.14 327.202 1077.3 322.592C1066.43 317.551 1070.48 297.502 1078.2 285.636C1085.96 273.769 1092.63 266.496 1093.28 259.171C1094.2 249.142 1083.69 248.717 1080.08 248.234C1069.53 246.877 1022.4 288.085 1006.15 302.542C1003.33 305.024 1000.19 302.077 1001.09 298.449C1002.01 294.784 1018.91 259.171 1018.91 259.171L965.052 259.168ZM495.018 0.875319C659.779 1.42984 755.293 106.306 754.241 184.346C754.241 296.142 618.676 354.11 505.524 354.11C434.295 638.848 204.332 650 161.906 647.063C-6.94568 633.417 1.23778 534.797 0.325195 524.769C7.65078 454.47 52.3627 459.043 60.5636 460.868C85.2433 467.286 87.0635 491.908 87.0635 503.774C87.0635 515.626 64.3731 536.886 61.4762 553.054C52.3627 604.187 110.189 633.922 168.269 636.562C228.077 639.315 312.031 598.271 369.054 470.016C373.629 456.327 439.353 302.075 453.044 275.147C459.89 261.672 525.149 135.954 608.172 122.267C558.925 171.572 538.82 260.101 510.532 339.048C539.75 341.319 570.592 338.282 618.215 295.642C646.2 270.569 670.504 231.184 677.129 169.264C678.921 152.398 671.273 21.8574 495.468 14.1215C257.723 3.62801 133.618 183.346 133.581 302.075C133.581 313.008 138.159 400.197 226.237 399.712C272.752 399.712 309.512 367.072 307.008 346.801C304.896 329.843 295.591 307.563 312.906 296.144C323.77 289.015 355.365 286.118 362.208 313.493C368.144 339.961 343.946 410.223 225.325 410.223C157.328 410.223 67.8518 359.135 71.5171 256.883C75.2346 153.091 217.676 2.84165e-05 495.018 0.875319Z" fill="white"/>
<path d="M819.483 426.199C817.64 438.078 816.625 445.801 828.596 447.644C853.955 451.518 902.988 392.404 902.988 392.404C902.988 392.404 911.013 400.326 902.988 409.758C882.904 433.507 828.775 475.484 801.683 483.242C789.317 486.763 769.228 486.209 765.64 463.635C763.263 448.803 767.425 431.687 767.425 431.687C767.425 431.687 696.251 506.525 650.609 480.057C646.073 477.309 605.772 450.126 669.783 359.583C731.416 272.412 804.881 257.328 830.419 255.092C856.471 252.753 890.766 252.094 891.57 267.389C892.5 284.743 821.305 414.331 819.483 426.199ZM730.026 355.915C698.449 410.35 688.975 443.568 706.759 450.374C745.553 465.277 815.924 330.039 838.172 271.497C793.017 267.389 751.523 318.961 730.026 355.915ZM1210.48 426.985C1208.65 438.886 1207.63 446.604 1219.63 448.43C1244.96 452.304 1290.82 395.945 1290.82 395.945C1290.82 395.945 1298.83 403.83 1290.82 413.296C1270.72 437.011 1219.79 476.29 1192.7 484.008C1180.33 487.569 1160.23 487.01 1156.65 464.424C1154.28 449.608 1158.48 432.471 1158.48 432.471C1158.48 432.471 1087.26 507.328 1041.66 480.865C1037.08 478.115 996.823 450.896 1060.8 360.388C1122.43 273.2 1195.88 258.168 1221.47 255.863C1247.48 253.561 1281.81 252.899 1282.62 268.192C1283.49 285.544 1212.32 415.116 1210.48 426.985ZM1121.04 356.718C1089.46 411.135 1079.97 444.332 1097.78 451.177C1136.55 466.03 1206.94 330.805 1229.22 272.282C1184.03 268.189 1142.52 319.764 1121.04 356.718Z" fill="white"/>
<path d="M1347 259.168L1247.54 479.125H1302.29L1372.11 325.339C1372.11 325.339 1410.91 283.612 1430.97 283.813C1446.52 283.952 1437.86 314.406 1430.04 325.339C1422.29 336.273 1356.56 479.125 1356.56 479.125H1411.78C1411.78 479.125 1475.72 348.184 1481.17 336.273C1486.67 324.427 1525.72 278.576 1547.34 278.825C1563.64 278.971 1550.56 309.83 1544.16 321.679C1537.77 333.58 1504.92 401.537 1489.82 431.652C1471.59 477.292 1501.52 485.6 1509.92 485.978C1553.74 487.8 1607.13 428.042 1607.13 428.042L1608.49 408.38C1608.49 408.38 1562.39 468.178 1546.38 456.762C1540.3 452.381 1539.16 448.537 1541.41 439.888C1542.62 435.385 1600.56 314.334 1608.92 297.967C1618.07 280.15 1622.72 254.078 1594.34 254.165C1545.09 254.235 1499.43 293.429 1499.43 293.429C1499.43 293.429 1502.64 255.078 1476.59 255.078C1431.88 255.078 1384.46 295.662 1384.46 295.662L1400.36 259.171L1347 259.168Z" fill="white"/>
<path d="M1962.6 259.168C1962.6 259.168 1887.3 415.228 1883.69 433.045C1880.01 450.842 1893.7 450.394 1892.34 450.394C1953.95 450.394 2027.4 259.171 2027.4 259.171H2076.68C2076.68 259.171 2005.77 423.235 2003.7 428.949C2000.91 436.228 2001.81 445.677 2011.34 447.947C2052.45 443.842 2124.22 329.002 2124.22 329.002C2124.22 329.002 2098.56 382.542 2095.87 388.8C2084.91 413.873 2019.67 465.443 2019.67 465.443C2019.67 465.443 1970.53 506.868 1952.59 471.839C1946.3 459.614 1948.45 432.577 1948.45 432.577C1948.45 432.577 1885.04 487.437 1851.31 486.438C1835.73 485.975 1823.86 476.859 1824.36 454.935C1824.82 431.118 1911.96 259.168 1911.96 259.168H1962.6Z" fill="white"/>
<path d="M2200.35 259.168L2180.76 303.895C2180.76 303.895 2181.33 305.718 2183.26 304.114C2195.27 293.981 2236.15 251.305 2278.86 251.415C2323.22 251.519 2300.31 306.648 2300.31 306.648L2240.09 433.045C2240.09 433.045 2234.15 449.738 2243.73 450.842C2259.67 452.662 2318.58 398.822 2318.58 398.822L2319 409.773C2319 409.773 2236.87 489.63 2200.84 486.435C2164.75 483.222 2182.12 441.241 2182.12 441.241L2249.16 297.049C2249.16 297.049 2255.17 282.448 2240.98 282.448C2209.5 282.448 2185.77 322.587 2171.61 339.936C2157.67 356.999 2100.92 479.122 2100.92 479.122L2050.2 478.679L2149.73 259.166L2200.35 259.168Z" fill="white"/>
</svg>
